X: 3
T: Sheperd's Hey
T:Bidford
M:4/4
L:1/8
S:Ben Lobley 1975
K:G
"G"BcdB "C"c2c2 | "G"BcdB "D7"A2A2 | "G"BcdB "Am"c2 Bc | "D7"d2 D2 "G"G3 A |
"G"BcdB "C"c2c2 | "G"BcdB "D7"A2A2 | "G"BcdB "Am"c2 Bc | "D7"d2 D2 "G"G3 A ||
"G"B2 G2 "C"c3 A | "G" B2 G2 "D7"A3 A | "G"BcdB "Am"c2 Bc | "D7"d2 D2 "G"G3 A |
"G"B2 G2 "C"c3 A | "G" B2 G2 "D7"A3 A | "G"BcdB "Am"c2 Bc | "D7"d2 D2 "G"G3 ||

